icons/solid/x-circle.svg

<svg width="24" height="24" viewBox="0 0 24 24" fill="none" xmlns="http://www.w3.org/2000/svg">
<path fill-rule="evenodd" clip-rule="evenodd" d="M12 2.25C6.61522 2.25 2.25 6.61522 2.25 12C2.25 17.3848 6.61522 21.75 12 21.75C17.3848 21.75 21.75 17.3848 21.75 12C21.75 6.61522 17.3848 2.25 12 2.25ZM10.2803 9.21967C9.98744 8.92678 9.51256 8.92678 9.21967 9.21967C8.92678 9.51256 8.92678 9.98744 9.21967 10.2803L10.9393 12L9.21967 13.7197C8.92678 14.0126 8.92678 14.4874 9.21967 14.7803C9.51256 15.0732 9.98744 15.0732 10.2803 14.7803L12 13.0607L13.7197 14.7803C14.0126 15.0732 14.4874 15.0732 14.7803 14.7803C15.0732 14.4874 15.0732 14.0126 14.7803 13.7197L13.0607 12L14.7803 10.2803C15.0732 9.98744 15.0732 9.51256 14.7803 9.21967C14.4874 8.92678 14.0126 8.92678 13.7197 9.21967L12 10.9393L10.2803 9.21967Z" fill="#0F172A"/>
</svg>

<svg xmlns="http://www.w3.org/2000/svg" viewBox="0 0 24 24" fill="currentColor" aria-hidden="true" data-slot="icon">
  <path fill-rule="evenodd" d="M12 2.25c-5.385 0-9.75 4.365-9.75 9.75s4.365 9.75 9.75 9.75 9.75-4.365 9.75-9.75S17.385 2.25 12 2.25Zm-1.72 6.97a.75.75 0 1 0-1.06 1.06L10.94 12l-1.72 1.72a.75.75 0 1 0 1.06 1.06L12 13.06l1.72 1.72a.75.75 0 1 0 1.06-1.06L13.06 12l1.72-1.72a.75.75 0 1 0-1.06-1.06L12 10.94l-1.72-1.72Z" clip-rule="evenodd"/>
</svg>
